X: 1
T: String Quartet in G Major opus 33 no 5 mvt 1
C: Franz Joseph Haydn
%%abc-version 2.0
%%abcx-abcm2ps-target-version 5.9.1 (29 Sep 2008)
%%abc-creator hum2abc beta
%%abcx-conversion-date 2021/02/14 14:38:14
%%abc-copyright Copyright (c) 1994, 2000 Center for Computer Assisted Research in the Humanities
%%abc-edited-by Frances Bennion
%%abcx-initial-encoding-date 1997/04/15
%%gracespace 0 6 6
%%humdrum-veritas 112025883
%%humdrum-veritas-data 2483063859
%%linebreak <none>
%%barnumbers 0
L: 1/8
M: 2/4
N: Derived from op33n5-01.krn
Q: "Vivace assai"
%%staves [1 2 3 4]
V: 1
V: 2
V: 3 clef=alto
V: 4 clef=bass
K: G
[V:1]D3 E/F/ [I:setbarnb2] |
[V:2][F2A,2] z2 |
[V:3]C2 z2 |
[V:4]D,2 z2 |
[V:1]G2 zB |
[V:2][B,2G2] zG |
[V:3]B,2 z2 |
[V:4]G,,2 z2 |
[V:1]B3 c |
[V:2]G3 A |
[V:3]DD DC |
[V:4]G,,G, G,G, |
[V:1]dd dA |
[V:2]BB BF |
[V:3]B,2 z2 |
[V:4]G,2 z2 |
[V:1]A3 B |
[V:2]F3 G |
[V:3]CC CB, |
[V:4]D,,D, D,D, |
[V:1]cc cG |
[V:2]AA Az |
[V:3]A,2 z2 |
[V:4]D,2 z2 |
[V:1]G4 |
[V:2]B,3 C/D/ |
[V:3]B,4 |
[V:4]E,E, E,E, |
[V:1]A3 B/c/ |
[V:2]E4 |
[V:3]C3 A, |
[V:4]C,C, C,C, |
[V:1]D3 E/F/ |
[V:2]C4 |
[V:3]F,3 G,/A,/ |
[V:4]D,D, D,D, |
[V:1]G2 zg |
[V:2]B,[BD] [BD][BD] |
[V:3]B,D DD |
[V:4]G,,G, G,G, |
[V:1]fe/d/ cB/A/ |
[V:2][c4D4] |
[V:3][F4A,4] |
[V:4]G,G, G,G, |
[V:1]G2 zb/g/ |
[V:2][BD][BD] [BD][BD] |
[V:3][G,G]D DD |
[V:4]G,,G, G,G, |
[V:1]fe/d/ cB/A/ |
[V:2][c4D4] |
[V:3][F4A,4] |
[V:4]G,G, G,G, |
[V:1]G2 zd'/b/ |
[V:2][BD][BD] [DB]B/G/ |
[V:3][G,G]D DD |
[V:4]G,,G, G,G, |
[V:1]ag/f/ gd'/b/ |
[V:2]FA GB/G/ |
[V:3]D4- |
[V:4]CC B,B, |
[V:1]ag/f/ ga |
[V:2]FA Gd |
[V:3]D4 |
[V:4]CC B,F, |
[V:1]b3 ^c'/d'/ |
[V:2]d4 |
[V:3]B,4- |
[V:4]G,G, G,G, |
[V:1]e'3 f'/g'/ |
[V:2]B4 |
[V:3]B,4 |
[V:4]G,G, G,G, |
[V:1]a3 b/^c'/ |
[V:2]G4 |
[V:3]^C3 D/E/ |
[V:4]A,A, A,A, |
[V:1]d'2 e'd'/e'/ |
[V:2]Fd ^cc |
[V:3]DF GG |
[V:4]D,D, A,,A,, |
[V:1]d'2 e'd'/e'/ |
[V:2]df ^cc |
[V:3]FF GG |
[V:4]D,D, A,,A,, |
[V:1]d'2 d'2 |
[V:2]d2 d2 |
[V:3]F2 F2 |
[V:4]D,2 D,2 |
[V:1]d'4 |
[V:2]d4 |
[V:3]F2 z2 |
[V:4]D,2 z2 |
[V:1]^c'2 =c'b |
[V:2]^c2 =cB |
[V:3]z4 |
[V:4]z3 G, |
[V:1]b3 c' |
[V:2]B3 c |
[V:3]D4- |
[V:4]G,3 A, |
[V:1]d'd' d'a |
[V:2]dd dA |
[V:3]D4- |
[V:4]B,B, B,F, |
[V:1]a3 b |
[V:2]A3 B |
[V:3]D4- |
[V:4]F,3 G, |
[V:1]c'c' c'g |
[V:2]cc cG |
[V:3]D2 z2 |
[V:4]A,A, A,z |
[V:1]g3 ^g |
[V:2]G3 ^G |
[V:3]DD DD |
[V:4]B,,B,, B,,B,, |
[V:1]a3 b/c'/ |
[V:2]A3 B/c/ |
[V:3]EE CA, |
[V:4]C,C, C,C, |
[V:1]d3 e/f/ |
[V:2]C4 |
[V:3]F,3 G,/A,/ |
[V:4]D,D, D,D, |
[V:1]g2 zb/g/ |
[V:2]B,[BD] [BD][BD] |
[V:3]B,D DD |
[V:4]G,,G, G,G, |
[V:1]fe/d/ cB/A/ |
[V:2][c4D4] |
[V:3][A,4F4] |
[V:4]G,G, G,G, |
[V:1]G2 zb/g/ |
[V:2][BD][BD] [BD][DB] |
[V:3][G,G]D DD |
[V:4]G,,G, G,G, |
[V:1]fe/^d/ d^c/B/ |
[V:2][^d4F4] |
[V:3]B4- |
[V:4]A,A, A,A, |
[V:1]e2 zb/g/ |
[V:2][eE]B BB |
[V:3]BE EE |
[V:4]G,G, G,G, |
[V:1]f/e/g/e/ ^cB/A/ |
[V:2][^c4E4] |
[V:3]A4- |
[V:4]G,G, G,G, |
[V:1]d2 zd'/a/ |
[V:2][dD]A AA |
[V:3]AD Dz |
[V:4]F,F, F,F, |
[V:1]gf/g/ fa/f/ |
[V:2]^c2 dF |
[V:3]z3 D |
[V:4]E,E, D,z |
[V:1]ed/e/ dd'/a/ |
[V:2]BB AA |
[V:3]GG Fz |
[V:4]z3 F, |
[V:1]gf/g/ fa/f/ |
[V:2]^c2 dF |
[V:3]z3 D |
[V:4]E,E, D,D, |
[V:1]ed/e/ da/f/ |
[V:2]BB Az |
[V:3]GG Fz |
[V:4]G,2 zD, |
[V:1]bb gf/g/ |
[V:2]D2 ^D2 |
[V:3]z4 |
[V:4]G,,G,, G,,G,, |
[V:1]ee d^c/d/ |
[V:2]E4- |
[V:3]B,4 |
[V:4]G,,G,, ^G,,G,, |
[V:1]^c/A/B/c/ d/e/f/^g/ |
[V:2]E/A,/B,/^C/ D/E/F/^G/ |
[V:3]^C/A,/B,/C/ D/E/F/^G/ |
[V:4]A,,B,,/^C,/ D,/E,/F,/^G,/ |
[V:1]a^c' e'c' |
[V:2]A^c ec |
[V:3]A^c ec |
[V:4]A,^C EC |
[V:1]az az |
[V:2]Az ^cz |
[V:3]Az Ez |
[V:4]A,z A,z |
[V:1]az2 a |
[V:2]^cz3 |
[V:3]Ez3 |
[V:4]A,z3 |
[V:1]a3 ^g |
[V:2]F3 ^E |
[V:3]z4 |
[V:4]D,,4- |
[V:1]a^g ag |
[V:2]F^E FE |
[V:3]z4 |
[V:4]D,,4- |
[V:1]ad' f'e' |
[V:2]F4- |
[V:3]A,4- |
[V:4]D,,4- |
[V:1]d'^c' ba |
[V:2]F4 |
[V:3]A,4- |
[V:4]D,,4 |
[V:1]g3 f |
[V:2]E3 ^D |
[V:3]A,2 z2 |
[V:4]A,,4- |
[V:1]gf gf |
[V:2]E^D ED |
[V:3]z4 |
[V:4]A,,4- |
[V:1]g^c' e'd' |
[V:2]E4- |
[V:3]^C4- |
[V:4]A,,4- |
[V:1]^c'b ag |
[V:2]E4 |
[V:3]C4 |
[V:4]A,,4 |
[V:1]fa a2- |
[V:2]Ff2 ^e |
[V:3]DD2 ^C |
[V:4]D,2 z2 |
[V:1]a3 g |
[V:2]f^e f^c |
[V:3]D^C D^A, |
[V:4]z4 |
[V:1]ff f2- |
[V:2]d3 ^c |
[V:3]B,2 z2 |
[V:4]B,3 ^A, |
[V:1]f3 e |
[V:2]d^c d^A |
[V:3]z4 |
[V:4]B,^A, B,F, |
[V:1]db2 a- |
[V:2]B2 ^d2 |
[V:3]B,4- |
[V:4]G,2 F,2 |
[V:1]a^g2 =g- |
[V:2]e2 ^c2- |
[V:3]B,2 A,2- |
[V:4]E,2 A,2 |
[V:1]gf2 e- |
[V:2]cd2 G- |
[V:3]A,2 _B,2 |
[V:4]D,2 _B,2 |
[V:1]ed2 ^c |
[V:2]GF2 E |
[V:3]A,4- |
[V:4]A,2 A,,2 |
[V:1]f3 g |
[V:2]D2 z2 |
[V:3]A,2 z2 |
[V:4]D,,2 z2 |
[V:1]aa ad |
[V:2]F3 G |
[V:3]zA/F/ Dz |
[V:4]D3 E |
[V:1]d3 e |
[V:2]AA AD |
[V:3]z4 |
[V:4]FF FB, |
[V:1]ff fB |
[V:2]D3 E |
[V:3]zF/D/ B,z |
[V:4]B,3 ^C |
[V:1]B3 ^c |
[V:2]FF FB, |
[V:3]z4 |
[V:4]DD DG, |
[V:1]dd dG |
[V:2]B,3 ^C |
[V:3]zD/B,/ G,z |
[V:4]G,3 A, |
[V:1]G3 A |
[V:2]DD DG, |
[V:3]z4 |
[V:4]B,B, B,E, |
[V:1]BB BG |
[V:2]G,3 G |
[V:3][G4-B,4] |
[V:4]E,E, E,E, |
[V:1]ee eB |
[V:2]GG GG |
[V:3][G4B,4-] |
[V:4]E,E, E,E, |
[V:1]gg ge |
[V:2]BB BB |
[V:3][G4B,4] |
[V:4]E,E, E,E, |
[V:1]b/f/b/f/ b/f/b/f/ |
[V:2][BA][AB] [BA][BA] |
[V:3][F4-B,4] |
[V:4]^D,D, D,D, |
[V:1]b/f/b/f/ b/f/b/f/ |
[V:2][BA][AB] [AB][AB] |
[V:3][F4B,4] |
[V:4]^D,D, D,D, |
[V:1]g4 |
[V:2][B4G4] |
[V:3][G4B,4] |
[V:4]E,E, E,E, |
[V:1][_B4_b4] |
[V:2][_B4=F4] |
[V:3][_B4=F4] |
[V:4]D,D, D,D, |
[V:1][A4-a4] |
[V:2][A4-E4] |
[V:3][A4E4] |
[V:4]^C,C, C,C, |
[V:1][A2a2] g2 |
[V:2][A4E4] |
[V:3][E4^C4] |
[V:4]^C,C, C,C, |
[V:1]fe/f/ ge |
[V:2]AG/A/ BG |
[V:3]DD G,G, |
[V:4]D,D, G,,G,, |
[V:1]d2 ^c2 |
[V:2]F2 E2 |
[V:3]A,A, A,A, |
[V:4]A,,A,, A,,A,, |
[V:1]df ad' |
[V:2]Dd dd |
[V:3]A,A, A,A, |
[V:4]F,F, F,F, |
[V:1]f'e' d'^c' |
[V:2]dd dd |
[V:3]A,A, A,A, |
[V:4]F,F, F,F, |
[V:1]zb zd' |
[V:2]dd dd |
[V:3]B,B, B,B, |
[V:4]G,G, G,G, |
[V:1]zb zg |
[V:2]dd dd |
[V:3]B,B, B,B, |
[V:4]G,G, G,G, |
[V:1]fa2 f/d/ |
[V:2]dd dd |
[V:3]A,F FF |
[V:4]A,A, A,A, |
[V:1]e4 |
[V:2]^cc cc |
[V:3]GG GG |
[V:4]A,,A,, A,,A,, |
[V:1]d2 zd |
[V:2]dF Fz |
[V:3]FD Dz |
[V:4]D,D, D,z |
[V:1]dz2 d |
[V:2]zG Gz |
[V:3]zD Dz |
[V:4]zE, E,z |
[V:1]dz2 d |
[V:2]zA Az |
[V:3]zD Dz |
[V:4]zF, F,z |
[V:1]dz2 ^c |
[V:2]zB Bz |
[V:3]zD Dz |
[V:4]zG, G,z |
[V:1]^cz2 =c |
[V:2]z_B Bz |
[V:3]zE Ez |
[V:4]zG, G,z |
[V:1]cz3 |
[V:2]zA Az |
[V:3]zD Dz |
[V:4]zF, F,z |
[V:1]z3 _B |
[V:2]z3 G |
[V:3]z4 |
[V:4]z4 |
[V:1]_B3 c |
[V:2]G3 A |
[V:3]DD DC |
[V:4]G,,G, G,G, |
[V:1]dd dA |
[V:2]_BB BF |
[V:3]_B,2 z2 |
[V:4]G,2 z2 |
[V:1]A3 _B |
[V:2]F3 G |
[V:3]CC C_B, |
[V:4]D,,D, D,D, |
[V:1]cc cG |
[V:2]AA Az |
[V:3]A,2 z2 |
[V:4]D,2 z2 |
[V:1]G4 |
[V:2]_B,3 C/D/ |
[V:3]_B,4 |
[V:4]_E,E, E,E, |
[V:1]_A3 _B/c/ |
[V:2]_E4 |
[V:3]C3 A, |
[V:4]C,C, C,C, |
[V:1]D3 E/F/ |
[V:2]C4 |
[V:3]F,3 G,/A,/ |
[V:4]D,D, D,D, |
[V:1]G2 zg |
[V:2]B,[DB] [BD][BD] |
[V:3]G,D DD |
[V:4]G,,G, G,G, |
[V:1]fe/d/ cB/A/ |
[V:2][c4D4] |
[V:3][F4A,4] |
[V:4]G,G, G,G, |
[V:1]G2 zG |
[V:2][BD][BD] [BD]G |
[V:3][G,G]G GG |
[V:4]G,,G, G,G, |
[V:1]FE/D/ CB,/A,/ |
[V:2]FE/D/ CB,/A,/ |
[V:3]FE/D/ CB,/A,/ |
[V:4]F,E,/D,/ C,B,,/A,,/ |
[V:1]G,4- |
[V:2]G,2 z2 |
[V:3]G,4- |
[V:4]G,,G,, G,,G,, |
[V:1]G,4 |
[V:2]z4 |
[V:3]G,4 |
[V:4]G,,G,, G,,G,, |
[V:1]_A,4 |
[V:2]z4 |
[V:3]=F,4- |
[V:4]G,,G,, G,,G,, |
[V:1]B,4 |
[V:2]z4 |
[V:3]F,4 |
[V:4]G,,G,, G,,G,, |
[V:1]C3 D/E/ |
[V:2]z3 c |
[V:3]E,E2 =F/G/ |
[V:4]C,,C, C,C, |
[V:1][=F4G,4] |
[V:2]BA/G/ =FE/D/ |
[V:3]D4 |
[V:4]C,C, C,C, |
[V:1][E2G,2] zc' |
[V:2]CE Gc |
[V:3]EG cc |
[V:4]C,,C, C,C, |
[V:1]ba/g/ =fe/d/ |
[V:2][=F4d4] |
[V:3]B4 |
[V:4]C,C, C,C, |
[V:1]cg2 g- |
[V:2][Ec]e2 e |
[V:3]c2 ze |
[V:4]C,2 zC |
[V:1]gg2 g- |
[V:2]=f4 |
[V:3]dc/B/ dc/B/ |
[V:4]B,A,/G,/ =F,E,/D,/ |
[V:1]gg2 g- |
[V:2]ee2 c |
[V:3]c2 zE |
[V:4]C,2 z2 |
[V:1]gg2 g- |
[V:2]BA/G/ cc |
[V:3]=FF ED/C/ |
[V:4]z4 |
[V:1]gg2 c' |
[V:2]BA/G/ ce |
[V:3]=FF ED/C/ |
[V:4]z3 C, |
[V:1]ba/g/ c'c' |
[V:2]=ff ee |
[V:3]DD EE |
[V:4]G,G, C,C, |
[V:1]ba/g/ c'c' |
[V:2]=ff eG |
[V:3]DD EE |
[V:4]G,G, C,C, |
[V:1]e'e' e'2- |
[V:2]G4 |
[V:3]C2 z2 |
[V:4]CC CC |
[V:1]e'd' c'b |
[V:2]^G4 |
[V:3]z4 |
[V:4]CC CC |
[V:1]aa a2- |
[V:2]A4 |
[V:3]E4- |
[V:4]CC CC |
[V:1]ag fe |
[V:2]^A4 |
[V:3]E4 |
[V:4]CC CC |
[V:1]bb gf/e/ |
[V:2]B^d ee |
[V:3]^DF GG |
[V:4]B,B, B,B, |
[V:1]bb gf/e/ |
[V:2]^dd ee |
[V:3]FF GG |
[V:4]B,B, B,B, |
[V:1]ff gg |
[V:2]^d^D EE |
[V:3]FB, B,B, |
[V:4]B,B, G,F,/E,/ |
[V:1]ff gg |
[V:2]^DD EE |
[V:3]B,B, B,B, |
[V:4]B,B, G,F,/E,/ |
[V:1]fz bz |
[V:2]^Dz Dz |
[V:3]B,z B,z |
[V:4]B,z B,,z |
[V:1]bz2 b |
[V:2]^Dz2 G |
[V:3]B,2 z2 |
[V:4]B,,2 z2 |
[V:1]b3 ^a |
[V:2]G3 F |
[V:3]z4 |
[V:4]E,,4- |
[V:1]b^a ba |
[V:2]GF GF |
[V:3]z4 |
[V:4]E,,4- |
[V:1]be' g'f' |
[V:2]G4- |
[V:3]B,4- |
[V:4]E,,4- |
[V:1]e'd' c'b |
[V:2]G4 |
[V:3]B,4- |
[V:4]E,,4 |
[V:1]a3 ^g |
[V:2]F3 ^E |
[V:3]B,2 z2 |
[V:4]B,,4- |
[V:1]a^g ag |
[V:2]F^E FE |
[V:3]z4 |
[V:4]B,,4- |
[V:1]a^d' f'e' |
[V:2]F4- |
[V:3]^D4- |
[V:4]B,,4- |
[V:1]^d'c' ba |
[V:2]F2 z2 |
[V:3]D2 z2 |
[V:4]B,,2 z2 |
[V:1]^g4- |
[V:2]=f3 e |
[V:3]d3 ^c |
[V:4]z4 |
[V:1]g4- |
[V:2]=fe fe |
[V:3]d^c dc |
[V:4]z4 |
[V:1]g4- |
[V:2]=f4- |
[V:3]d4- |
[V:4]E3 =F |
[V:1]g4 |
[V:2]f4 |
[V:3]d4 |
[V:4]E=F EF |
[V:1]^g3 a |
[V:2]=f3 e |
[V:3]d3 c |
[V:4]E4- |
[V:1]bb ba |
[V:2]dd de |
[V:3]BB Bc |
[V:4]E4- |
[V:1]^g3 a |
[V:2]=f3 e |
[V:3]d3 c |
[V:4]E4- |
[V:1]bb ba |
[V:2]dd de |
[V:3]BB Bc |
[V:4]E4- |
[V:1]^ga ga |
[V:2]=fe fe |
[V:3]dc dc |
[V:4]E4- |
[V:1]^ga bc' |
[V:2]=fe dc |
[V:3]dc BA |
[V:4]E4 |
[V:1]d'd' d'd' |
[V:2]BB BB |
[V:3]^GG GG |
[V:4]EE EE |
[V:1]d'2 z2 |
[V:2]B2 z2 |
[V:3]^G2 z2 |
[V:4]E2 z2 |
[V:1]c'4 |
[V:2][=f4c4] |
[V:3][=F4A4] |
[V:4]A,A, A,A, |
[V:1][_b/c/]g/b/g/b/ g/b/g/|
[V:2][e4c4] |
[V:3][_B4G4] |
[V:4]G,G, G,G, |
[V:1][a4A4] |
[V:2][=f4c4] |
[V:3][A4c4] |
[V:4]=F,F, F,F, |
[V:1][g/A/]e/g/e/g/ e/g/e/|
[V:2]^c4 |
[V:3]A4- |
[V:4]E,E, E,E, |
[V:1]=f4- |
[V:2]d4 |
[V:3]A4 |
[V:4]D,D, D,D, |
[V:1]f4 |
[V:2]B4 |
[V:3]^G4 |
[V:4]DD DD |
[V:1]e4 |
[V:2]A4 |
[V:3]A4 |
[V:4]^CC CC |
[V:1]g4 |
[V:2]e4 |
[V:3]^A4 |
[V:4]CC CC |
[V:1]b4 |
[V:2]g4 |
[V:3]B4- |
[V:4]B,B, B,B, |
[V:1]^d4 |
[V:2]f4 |
[V:3]B4 |
[V:4]B,B, B,B, |
[V:1]c'/a/c'/a/ c'/a/c'/a/ |
[V:2]^dd2 d- |
[V:3]FF2 F- |
[V:4]A,A, A,A, |
[V:1]c'/a/c'/a/ c'/a/c'/a/ |
[V:2]d^d2 d |
[V:3]FF2 F |
[V:4]A,A, A,A, |
[V:1]bb za |
[V:2]ee zf |
[V:3]Ez Cz |
[V:4]G,z A,z |
[V:1]zg zf |
[V:2]ze z^d |
[V:3]B,z B,z |
[V:4]B,z B,z |
[V:1]c'c'2 c'- |
[V:2]f/^d/f/d/ f/d/f/d/ |
[V:3]^D/F/D/F/ D/F/D/F/ |
[V:4]A,A, A,A, |
[V:1]c'c'2 c' |
[V:2]f/^d/f/d/ f/d/f/d/ |
[V:3]^D/F/D/F/ D/F/D/F/ |
[V:4]A,A, A,A, |
[V:1]bb za |
[V:2]ee zf |
[V:3]Ez Cz |
[V:4]G,z A,z |
[V:1]zg zf |
[V:2]ze z^d |
[V:3]B,z B,z |
[V:4]B,z B,,z |
[V:1]e2 ze |
[V:2]eG Gz |
[V:3]EE Ez |
[V:4]E,2 z2 |
[V:1]ez2 e |
[V:2]zA Az |
[V:3]zF Fz |
[V:4]z4 |
[V:1]ez2 =f |
[V:2]zB Bz |
[V:3]zG Gz |
[V:4]z4 |
[V:1]=fz3 |
[V:2]zB Bz |
[V:3]zG Gz |
[V:4]z4 |
[V:1]z4 |
[V:2]z4 |
[V:3]z4 |
[V:4]z4 |
[V:1]z3 =f |
[V:2]z3 d |
[V:3]z4 |
[V:4]z4 |
[V:1]=fz2 e |
[V:2]dz2 c |
[V:3]zB, B,z |
[V:4]z^G, G,z |
[V:1]ez2 _e |
[V:2]cz2 c |
[V:3]zC Cz |
[V:4]zA, A,z |
[V:1]_ez2 d |
[V:2]cz2 c |
[V:3]zA, A,z |
[V:4]zF, F,z |
[V:1]dz3 |
[V:2]cz3 |
[V:3]zA Az |
[V:4]zF Fz |
[V:1]z4 |
[V:2]z4 |
[V:3]z4 |
[V:4]z4 |
[V:1]z4 |
[V:2]z4 |
[V:3]z4 |
[V:4]z4 |
[V:1]D3 E/F/ |
[V:2][A,2F2] z2 |
[V:3]C2 z2 |
[V:4]D,2 z2 |
[V:1]G2 zB |
[V:2][G2G,2] zG |
[V:3]B,2 z2 |
[V:4]G,,2 z2 |
[V:1]B3 c |
[V:2]G3 A |
[V:3]DD DC |
[V:4]G,,G, G,G, |
[V:1]dd dA |
[V:2]BB BF |
[V:3]B,2 z2 |
[V:4]G,2 z2 |
[V:1]A3 B |
[V:2]F3 G |
[V:3]CC CB, |
[V:4]D,,D, D,D, |
[V:1]cc cG |
[V:2]AA Az |
[V:3]A,2 z2 |
[V:4]D,2 z2 |
[V:1]G4 |
[V:2]B,3 C/D/ |
[V:3]B,4 |
[V:4]E,E, E,E, |
[V:1]A3 B/c/ |
[V:2]E4 |
[V:3]C3 A, |
[V:4]C,C, C,C, |
[V:1]D3 E/F/ |
[V:2]C4 |
[V:3]F,3 G,/A,/ |
[V:4]D,D, D,D, |
[V:1]G2 zg |
[V:2]B,[BD] [BD][BD] |
[V:3]B,D DD |
[V:4]G,,G, G,G, |
[V:1]fe/d/ cB/A/ |
[V:2][c4D4] |
[V:3][A,4F4] |
[V:4]G,G, G,G, |
[V:1]G2 zb/g/ |
[V:2][BD][BD] [BD][DB] |
[V:3][G,G]D DD |
[V:4]G,,G, G,G, |
[V:1]fe/d/ cB/A/ |
[V:2][c4D4] |
[V:3][F4A,4] |
[V:4]G,G, G,G, |
[V:1]G2 zd'/b/ |
[V:2][BD][DB] [BD]B/G/ |
[V:3][G,G]D DD |
[V:4]G,,G, G,G, |
[V:1]ag/f/ gd'/b/ |
[V:2]FA GB/G/ |
[V:3]D4- |
[V:4]CC B,B, |
[V:1]ag/f/ ga |
[V:2]FA Gd |
[V:3]D4 |
[V:4]CC B,F, |
[V:1]b3 ^c'/d'/ |
[V:2]d4 |
[V:3]B,4- |
[V:4]G,G, G,G, |
[V:1]e'3 f'/g'/ |
[V:2]B4 |
[V:3]B,4 |
[V:4]G,G, G,G, |
[V:1]a3 b/^c'/ |
[V:2]G4 |
[V:3]^C3 D/E/ |
[V:4]A,A, A,A, |
[V:1]d'2 e'd'/e'/ |
[V:2]Fd ^cc |
[V:3]DF GG |
[V:4]D,D, A,,A,, |
[V:1]d'2 e'd'/e'/ |
[V:2]df ^cc |
[V:3]FF GG |
[V:4]D,D, A,,A,, |
[V:1]d'z d'z |
[V:2]dz dz |
[V:3]Fz Fz |
[V:4]D,z D,z |
[V:1]d'4 |
[V:2]d4 |
[V:3]F2 z2 |
[V:4]D,2 z2 |
[V:1]^c'2 =c'b |
[V:2]^c2 =cB |
[V:3]z4 |
[V:4]z4 |
[V:1]b3 c' |
[V:2]g3 a |
[V:3]zB B2- |
[V:4]zG, G,2- |
[V:1]d'd' d'z |
[V:2]bb bz |
[V:3]Bc dd |
[V:4]G,A, B,B, |
[V:1]zb/c'/ d'z |
[V:2]zg/a/ bz |
[V:3]dz2 B/c/ |
[V:4]B,z2 G,/A,/ |
[V:1]zb/c'/ d'z |
[V:2]zg/a/ bz |
[V:3]dz2 B/c/ |
[V:4]B,z2 G,/A,/ |
[V:1]zg/a/ bz |
[V:2]ze/f/ gz |
[V:3]dz2 G/A/ |
[V:4]B,z2 E/F/ |
[V:1]ze/f/ gz |
[V:2]zc/d/ ez |
[V:3]Bz2 E/F/ |
[V:4]Gz2 C/D/ |
[V:1]zc/d/ ez |
[V:2]zA/B/ cz |
[V:3]Gz2 C/D/ |
[V:4]Ez2 A,/B,/ |
[V:1]zA/B/ cc |
[V:2]z3 F/G/ |
[V:3]Ez3 |
[V:4]Cz3 |
[V:1]c4- |
[V:2]A4- |
[V:3]zD/E/ F2- |
[V:4]z3 C,/D,/ |
[V:1]c3 A/_B/ |
[V:2]A3 z |
[V:3]F3 z |
[V:4]_E,C,/D,/ E,z |
[V:1]cc/d/ _ee |
[V:2]z4 |
[V:3]z4 |
[V:4]z4 |
[V:1]_ed a2- |
[V:2]cc cc |
[V:3]FF FF |
[V:4]z3 D,/E,/ |
[V:1]a3 _e |
[V:2]cc cc |
[V:3]FF FF |
[V:4]F,2 z2 |
[V:1]_ed _b2- |
[V:2]_BB BB |
[V:3]GG GG |
[V:4]z3 G,/A,/ |
[V:1]b3 d |
[V:2]_BB BB |
[V:3]GG GG |
[V:4]_B,2 z2 |
[V:1]=f_e _b2- |
[V:2]_BB BB |
[V:3]GG GG |
[V:4]z3 _E,/=F,/ |
[V:1]b3 _e |
[V:2]_BB BB |
[V:3]GG GG |
[V:4]G,2 z2 |
[V:1]_ed c'2- |
[V:2]_AA AA |
[V:3]=FF FF |
[V:4]z3 _B,,/C,/ |
[V:1]c'3 d |
[V:2]_AA AA |
[V:3]=FF FF |
[V:4]D,2 z2 |
[V:1]=f_e _b2- |
[V:2]GG GG |
[V:3]_EE EE |
[V:4]z3 G,/=F,/ |
[V:1]b_a g=f |
[V:2]GG GG |
[V:3]_EE EE |
[V:4]_E,4- |
[V:1]=f_e e2- |
[V:2]GG GG |
[V:3]_EE EE |
[V:4]E,3 G,/=F,/ |
[V:1]e2 d2- |
[V:2]GG GG |
[V:3]_EE EE |
[V:4]_E,4- |
[V:1]d^c c2- |
[V:2]GG GG |
[V:3]_EE EE |
[V:4]E,3 G,/=F,/ |
[V:1]c2 ^c3/d/ |
[V:2]GG GG |
[V:3]GG GG |
[V:4]_E,4- |
[V:1]d4- |
[V:2]A3 B |
[V:3]F3 ^G |
[V:4]E,F,/E,/ D,z |
[V:1]d4- |
[V:2]cc c_B |
[V:3]AA AG |
[V:4]z4 |
[V:1]d4- |
[V:2]A3 B |
[V:3]F3 ^G |
[V:4]D,F,/E,/ D,z |
[V:1]d4- |
[V:2]cc c_B |
[V:3]AA AG |
[V:4]z4 |
[V:1]d4- |
[V:2]A3 B |
[V:3]F3 ^G |
[V:4]D,F,/E,/ D,z |
[V:1]d4- |
[V:2]cB cB |
[V:3]A^G AG |
[V:4]z4 |
[V:1]d4- |
[V:2]c4- |
[V:3]A4- |
[V:4]z3 D,, |
[V:1]d4- |
[V:2]c4 |
[V:3]A4 |
[V:4]_E,,=E,, =F,,^F,, |
[V:1]d3 ^c |
[V:2]B,3 ^A, |
[V:3]G2 z2 |
[V:4]G,,4- |
[V:1]d^c dc |
[V:2]B,^A, B,A, |
[V:3]z4 |
[V:4]G,,4- |
[V:1]dg ba |
[V:2]B,4- |
[V:3]D,4- |
[V:4]G,,4- |
[V:1]gf ed |
[V:2]B,4 |
[V:3]D,4- |
[V:4]G,,4 |
[V:1]c3 B |
[V:2]A,3 ^G, |
[V:3]D,2 z2 |
[V:4]D,,4- |
[V:1]cB cB |
[V:2]A,^G, A,G, |
[V:3]z4 |
[V:4]D,,4- |
[V:1]cf ag |
[V:2]A,4- |
[V:3]F,4- |
[V:4]D,,4- |
[V:1]fe dc |
[V:2]A,4 |
[V:3]F,4 |
[V:4]D,,4 |
[V:1]Bd' d'2- |
[V:2]B,B2 ^A |
[V:3]G,G2 F |
[V:4]G,,2 z2 |
[V:1]d'3 c' |
[V:2]B^A BF |
[V:3]GF G^D |
[V:4]z4 |
[V:1]bb b2- |
[V:2]G3 F |
[V:3]E2 z2 |
[V:4]E3 ^D |
[V:1]b3 a |
[V:2]GF G^D |
[V:3]z4 |
[V:4]E^D EB, |
[V:1]ge'2 d'- |
[V:2]Eg2 =f- |
[V:3]E2 ^G2 |
[V:4]C2 B,2 |
[V:1]d'^c'2 =c'- |
[V:2]fe2 _e- |
[V:3]A2 F2 |
[V:4]A,4 |
[V:1]c'b2 a- |
[V:2]ed2 c- |
[V:3]G2 _E2 |
[V:4]G,2 z2 |
[V:1]ag2 f- |
[V:2]cB2 A- |
[V:3]D2 z2 |
[V:4]z2 ^D2 |
[V:1]fe2 =f- |
[V:2]AG2 ^G- |
[V:3]z2 B,2 |
[V:4]E2 D2 |
[V:1]fe2 _e- |
[V:2]GA2 F- |
[V:3]^C2 A,2 |
[V:4]^C2 =C2 |
[V:1]ed2 c- |
[V:2]FG2 A- |
[V:3]B,2 C2 |
[V:4]B,2 C2 |
[V:1]cB2 A |
[V:2]AG2 F |
[V:3]D2 D2 |
[V:4]D2 D,2 |
[V:1]b3 c' |
[V:2]G2 z2 |
[V:3]D2 z2 |
[V:4]G,2 z2 |
[V:1]d'd' d'g |
[V:2]B3 c |
[V:3]G3 A |
[V:4]z4 |
[V:1]g3 a |
[V:2]dd dG |
[V:3]BB BE |
[V:4]z4 |
[V:1]bb be |
[V:2]G3 A |
[V:3]E3 F |
[V:4]z4 |
[V:1]e3 f |
[V:2]BB BE |
[V:3]GG GC |
[V:4]z4 |
[V:1]gg gc |
[V:2]E3 F |
[V:3]C2 z2 |
[V:4]C3 D |
[V:1]c3 d |
[V:2]GG GC |
[V:3]z4 |
[V:4]EE EA, |
[V:1]ee eA |
[V:2]CC CC |
[V:3][C4-E4] |
[V:4]A,A, A,A, |
[V:1]aa ae |
[V:2]cc cc |
[V:3][C4E4-] |
[V:4]A,A, A,A, |
[V:1]c'c' c'a |
[V:2]ee ee |
[V:3][C4E4-] |
[V:4]A,A, A,A, |
[V:1]e'e' c'a |
[V:2]cc cc |
[V:3][C4E4] |
[V:4]A,A, A,A, |
[V:1]g4 |
[V:2]c4- |
[V:3]A4- |
[V:4]D,4- |
[V:1]f3 g |
[V:2]c3 z |
[V:3]A3 z |
[V:4]D,3 z |
[V:1][g3_B3] _a |
[V:2][_e4-_E4] |
[V:3][G,4-G4] |
[V:4][_B,,_E,,][E,,B,,] [B,,E,,][B,,E,,] |
[V:1]_bb b_e |
[V:2][_e4E4-] |
[V:3][G,4G4-] |
[V:4][_B,,_E,,][B,,E,,] [B,,E,,][E,,B,,] |
[V:1]_e3 =f |
[V:2][_e4E4-] |
[V:3][G,4G4-] |
[V:4][_B,,_E,,][B,,E,,] [B,,E,,][B,,E,,] |
[V:1]gg g_B |
[V:2][_e4E4] |
[V:3][G,4G4] |
[V:4][_E,,_B,,][B,,E,,] [B,,E,,][B,,E,,] |
[V:1]_B3 c/d/ |
[V:2]_E4- |
[V:3]G,4- |
[V:4]G,,G,, G,,G,, |
[V:1]_e_B G_E |
[V:2]E4 |
[V:3]G,4 |
[V:4]G,,G,, G,,G,, |
[V:1]D4 |
[V:2]_B,4- |
[V:3]G,4 |
[V:4]G,,4- |
[V:1]^C4 |
[V:2]B,4 |
[V:3]E,4 |
[V:4]G,,4 |
[V:1]C4- |
[V:2]A,4- |
[V:3]_E,4 |
[V:4]F,,4- |
[V:1]C3 B, |
[V:2]A,3 D |
[V:3]D,4- |
[V:4]F,,3 G,, |
[V:1]B,3 C |
[V:2]D4- |
[V:3]D,4- |
[V:4]G,,3 A,, |
[V:1]DD DA, |
[V:2]D4- |
[V:3]D,4- |
[V:4]B,,B,, B,,F,, |
[V:1]A,3 B, |
[V:2]D4- |
[V:3]D,4- |
[V:4]F,,3 G,, |
[V:1]CC CB, |
[V:2]D4 |
[V:3]D,2 z2 |
[V:4]A,,A,, A,,G,, |
[V:1]EE ED |
[V:2]G,4 |
[V:3]z4 |
[V:4]C,C, C,B,, |
[V:1]GG GF |
[V:2]DD DC |
[V:3]z4 |
[V:4]B,B, B,A, |
[V:1]cz Bz |
[V:2]Az Gz |
[V:3]Dz Dz |
[V:4]F,z G,z |
[V:1]Az Fz |
[V:2]Ez Cz |
[V:3]Ez A,z |
[V:4]C,z D,z |
[V:1]GB/c/ de/f/ |
[V:2]B,2 z2 |
[V:3]B,2 z2 |
[V:4]G,2 z2 |
[V:1]gg/a/ bb/c'/ |
[V:2]zB/c/ dg/a/ |
[V:3]z4 |
[V:4]z4 |
[V:1]d'd' d'd' |
[V:2]bb bb |
[V:3]z4 |
[V:4]z4 |
[V:1]d'd' d'd' |
[V:2]bb bb |
[V:3]z4 |
[V:4]z4 |
[V:1]c'c' c'c' |
[V:2]bb bb |
[V:3]E3 F/G/ |
[V:4]z4 |
[V:1]c'c' c'c' |
[V:2]aa aa |
[V:3]Az3 |
[V:4]D3 E/F/ |
[V:1]bb bb |
[V:2]aa aa |
[V:3]z4 |
[V:4]G2 z2 |
[V:1]bb bb |
[V:2]gg gg |
[V:3]G3 A/B/ |
[V:4]z4 |
[V:1]aa aa |
[V:2]gg gg |
[V:3]c2 z2 |
[V:4]C3 D/E/ |
[V:1]aa aa |
[V:2]ff ff |
[V:3]z4 |
[V:4]D,3 E,/F,/ |
[V:1]g2 z2 |
[V:2]g2 z2 |
[V:3]z4 |
[V:4]G,2 z2 |
[V:1]D3 E/F/ |
[V:2][F2A,2] z2 |
[V:3]C2 z2 |
[V:4]D,2 z2 |
[V:1]G2 z2 |
[V:2][G,2G2] z2 |
[V:3]B,2 z2 |
[V:4]G,,2 z2 |
[V:1]D3 E/F/ |
[V:2]D3 E/F/ |
[V:3]D,3 E,/F,/ |
[V:4]D,,3 E,,/F,,/ |
[V:1]G2 z2 |
[V:2]G2 z2 |
[V:3]G,2 z2 |
[V:4]G,,2 z2 |
[V:1]z4 |]
[V:2]z4 |]
[V:3]z4 |]
[V:4]z4 |]

